!!!COM: Mozart, Wolfgang Amadeus
!!!OTL: String Quartet No. 12 in B-flat Major
!!!OMD: Allegro assai
!!!OMV: 4
!!!SCT1: K<sup>1</sup> 172
!!!SCA: Chronologisch-thematisches Verzeichnis sämtlicher Tonwerke Wolfgang Amade Mozarts (L. von Köchel; 1862, 2/1905, 3/1937, 1947)
!!!SCT2: K<sup>6</sup> 172
!!!YOR: Breitkopf & Härtel Edition
!!!ENC: Frances Bennion
!!!CDT: 1756/1/27/-1791/12/5/
!!!OCY: Österreich
!!!YEC: Copyright (c) 1994, 2000 Center for Computer Assisted Research in the Humanities
!!!YEM: Rights to all derivative editions reserved.
!!!YEM: Refer to licensing agreement for further details.
!!!YEN: United States of America
**kern	**kern	**kern	**kern
*k[b-e-]	*k[b-e-]	*k[b-e-]	*k[b-e-]
*B-:	*B-:	*B-:	*B-:
*clefC	*clefF	*clefG	*clefG
*M2/4	*M2/4	*M2/4	*M2/4
4..r	4..r	4..r	4..r
16r	16r	16dd	16ff
=1	=1	=1	=1
2r	2r	4ee-	4gg
.	.	4dd	4ff
=2	=2	=2	=2
4..r	4..r	4cc	4ee-
.	.	4b	4dd
16d	16f	.	.
=3	=3	=3	=3
4e-	4g	4cc	4cc
4d	4f	4r	4r
=4	=4	=4	=4
4c	4e-	4..r	4..r
4B-	4d	.	.
.	.	16g	16ee-
=5	=5	=5	=5
4A	4c	4f	4ff
4r	4r	4cc	4ee-
=6	=6	=6	=6
4..r	4..r	4b-	4dd
.	.	4a	4cc
16c	16e-	.	.
=7	=7	=7	=7
4d	4f	4b-	4b-
4c	4e-	4r	4r
=8	=8	=8	=8
4B-	4d	2r	2r
4A	4c	.	.
=9	=9	=9	=9
8B-	8B-	8d	2ff
8B-	8B-	8d	.
8B-	8B-	8d	.
8B-	8B-	8d	.
=10	=10	=10	=10
8B-	8B-	8f	4dd
8B-	8B-	8f	.
8B-	8d	8f	4b-
8B-	8d	8f	.
=11	=11	=11	=11
8BB-	8B-	8e-	[6..gg
8BB-	8B-	8e-	.
8BB-	8B-	8ee-	.
.	.	.	48gg]
.	.	.	16aa
8BB-	8B-	8ee-	16gg
.	.	.	16aa
=12	=12	=12	=12
8BB-	8B-	8dd	4bb-
8BB-	8B-	8dd	.
8D	8d	8f	8.r
8D	8d	8f	.
.	.	.	16b-
=13	=13	=13	=13
8E-	8e-	8g	4cc
8E-	8e-	8g	.
8F	8f	8a	4dd
8F	8f	8a	.
=14	=14	=14	=14
8G	8g	8b-	4.ee-
8G	8g	8b-	.
8A	8f	8cc	.
8A	8f	8cc	16dd
.	.	.	16ee-
=15	=15	=15	=15
8B-	4.f	8b-	4.dd
8BB-	.	4B-	.
8B-	.	.	.
8B-	8d	[8B-	8b-
=16	=16	=16	=16
8A	8e-	8B-]	8cc
8A-	8f	4B-	8dd
8G	8g	.	8ee-
8F	8d	8B-	8ff
=17	=17	=17	=17
8E-	8e-	8B-	2gg
8E-	8e-	8b-	.
8E-	8e-	8b-	.
8E-	8e-	8b-	.
=18	=18	=18	=18
8r	8r	8r	2aa
8F	8c	8e-	.
8F	8c	8e-	.
8F	8c	8e-	.
=19	=19	=19	=19
8r	8r	8r	2bb-
8G	8B-	8d	.
8G	8B-	8d	.
8G	8B-	8d	.
=20	=20	=20	=20
8r	8r	8r	2ccc
8A	8e-	8f	.
8A	8e-	8f	.
8A	8e-	8f	.
=21	=21	=21	=21
8r	8r	8r	2ddd
8B-	8d	8f	.
8B-	8B-	8f	.
8B-	8B-	8f	.
=22	=22	=22	=22
8r	8r	8r	2ee
8G	8c	8b-	.
8G	8c	8b-	.
8G	8c	8b-	.
=23	=23	=23	=23
4F	8c	8a	8ff
.	4c	8a	8ff
4c	.	8b-	8gg
.	[8c	8g	8ee
=24	=24	=24	=24
4F	8c]	8a	8ff
.	4c	8a	8ff
4C	.	8b-	8gg
.	[8c	8g	8ee
=25	=25	=25	=25
4F	4c]	4a	4ff
4F	4c	4f 4A	4f 4A
=26	=26	=26	=26
4FF	4c	4f 4A	4f 4A
4r	4r	4r	4r
=27	=27	=27	=27
2F	4.cc	8r	4.ccc
.	.	8c	.
.	.	8B	.
.	8a	8c	8aa
=28	=28	=28	=28
2A	4f	8r	4ff
.	.	8c	.
.	8.r	8B	8.r
.	.	8c	.
.	16f	.	16ff
=29	=29	=29	=29
2G	4.b-	8r	4.bb-
.	.	8c	.
.	.	8B	.
.	8g	8c	8gg
=30	=30	=30	=30
2B-	4e	8r	4ee
.	.	8c	.
.	8.r	8B	8.r
.	.	8c	.
.	16c	.	16cc
=31	=31	=31	=31
4A	4f	8r	4ff
.	.	8c	.
4G	4e	8r	4gg
.	.	8c	.
=32	=32	=32	=32
4F	4f	8r	4aa
.	.	8c	.
4E	4g	8r	4bb-
.	.	8c	.
=33	=33	=33	=33
2F	2f	8r	2aa
.	.	8c	.
.	.	8B	.
.	.	8c	.
=34	=34	=34	=34
2C	4e	8r	4gg
.	.	8c	.
.	4r	8B	4r
.	.	8c	.
=35	=35	=35	=35
2F	4.cc	8r	4.ccc
.	.	8c	.
.	.	8B	.
.	8a-	8c	8aa-
=36	=36	=36	=36
2A-	4f	8r	4ff
.	.	8c	.
.	8.r	8B	8.r
.	.	8c	.
.	16f	.	16ff
=37	=37	=37	=37
2G	4.b-	8r	4.bb-
.	.	8c	.
.	.	8B	.
.	8g	8c	8gg
=38	=38	=38	=38
2B-	4e	8r	4ee
.	.	8c	.
.	8.r	8B	8.r
.	.	8c	.
.	16e	.	16ee
=39	=39	=39	=39
4A-	2f	8r	4ff
.	.	8c	.
4F	.	8r	4dd-
.	.	8a-	.
=40	=40	=40	=40
4E-	4e-	8r	4cc
.	.	8g	.
4D-	4f	8r	4b
.	.	8f	.
=41	=41	=41	=41
4C	4g	4e	4cc
4r	4r	4r	4r
=42	=42	=42	=42
4r	2r	12c	4r
.	.	12d	.
.	.	12e	.
4A	.	12f	4ff
.	.	12g	.
.	.	12a	.
=43	=43	=43	=43
4G	4r	12b-	4ee
.	.	12g	.
.	.	12e	.
4B-	4e	12c	4r
.	.	12c	.
.	.	12c	.
=44	=44	=44	=44
4A	4f	12c	4r
.	.	12d	.
.	.	12e	.
4F	4r	12f	4ff
.	.	12g	.
.	.	12a	.
=45	=45	=45	=45
4G	4r	12b-	4ee
.	.	12g	.
.	.	12e	.
4B-	4e	12c	4r
.	.	12c	.
.	.	12c	.
=46	=46	=46	=46
4A	4f	12c	4r
.	.	12f	.
.	.	12a	.
4r	4r	12cc	4ff
.	.	12a	.
.	.	12f	.
=47	=47	=47	=47
4B-	4f	12B-	4r
.	.	12d	.
.	.	12f	.
4r	4r	12g	4dd
.	.	12d	.
.	.	12b-	.
=48	=48	=48	=48
4c	4r	12a	12cc
.	.	12b-	12dd
.	.	12a	12cc
4C	4B-	12g	12b-
.	.	12f	12a
.	.	12e	12g
=49	=49	=49	=49
[4F	4B-	4e	4g
8F]	8A	8f	8f
8r	8r	8r	8r
=50	=50	=50	=50
4FF	2r	4r	12cc
.	.	.	12dd
.	.	.	12ee
4AA	.	4f	12ff
.	.	.	12gg
.	.	.	12aa
=51	=51	=51	=51
4GG	4r	4e	12bb-
.	.	.	12gg
.	.	.	12ee
4BB-	4E	4r	12cc
.	.	.	12cc
.	.	.	12cc
=52	=52	=52	=52
4AA	4F	4r	12cc
.	.	.	12dd
.	.	.	12ee
4FF	4r	4f	12ff
.	.	.	12gg
.	.	.	12aa
=53	=53	=53	=53
4GG	4r	4e	12bb-
.	.	.	12gg
.	.	.	12ee
4BB-	4E	4r	12cc
.	.	.	12cc
.	.	.	12cc
=54	=54	=54	=54
4AA	4F	4r	12cc
.	.	.	12ff
.	.	.	12ee
4A	4r	4cc	12ff
.	.	.	12gg
.	.	.	12aa
=55	=55	=55	=55
4B-	[2f	12b-	12dd
.	.	12dd	12ff
.	.	12cc	12ee
4BB-	.	12dd	12ff
.	.	12cc	12ee
.	.	12b-	12dd
=56	=56	=56	=56
4C	4f]	12a	12cc
.	.	12b-	12dd
.	.	12a	12cc
4C	4B-	12g	12b-
.	.	12f	12a
.	.	12e	12g
=57	=57	=57	=57
4FF	12A	4f	4f
.	12f	.	.
.	12f	.	.
4F	12f	4a	4aa
.	12e	.	.
.	12f	.	.
=58	=58	=58	=58
4G	12f	4b-	4bb-
.	12e	.	.
.	12f	.	.
4A	12f	4cc	4ccc
.	12e	.	.
.	12f	.	.
=59	=59	=59	=59
4B-	12f	4dd	4ddd
.	12e	.	.
.	12f	.	.
4BB-	12c	[4e	[4gg
.	12B	.	.
.	12c	.	.
=60	=60	=60	=60
4B-	12c	4e]	4gg]
.	12B	.	.
.	12c	.	.
4A	12c	4f	4aa
.	12B	.	.
.	12c	.	.
=61	=61	=61	=61
4G	12d	4g	4bb-
.	12B-	.	.
.	12d	.	.
4GG	12G	12B-	[4dd
.	12F#	12A	.
.	12G	12B-	.
=62	=62	=62	=62
4BB-	12G	12B-	4dd]
.	12F#	12A	.
.	12G	12B-	.
4C	12G	12B-	4ee
.	12F#	12A	.
.	12G	12B-	.
=63	=63	=63	=63
4D	4F	4A	4ff
4BB-	[4f	12B-	4dd
.	.	12d	.
.	.	12b-	.
=64	=64	=64	=64
4C	4f]	12a	12cc
.	.	12b-	12dd
.	.	12a	12cc
4CC	4B-	12g	12b-
.	.	12f	12a
.	.	12e	12g
=65	=65	=65	=65
4FF	12A	4f	4f
.	12f	.	.
.	12f	.	.
4F	12f	4a	4aa
.	12e	.	.
.	12f	.	.
=66	=66	=66	=66
4G	12f	4b-	4bb-
.	12e	.	.
.	12f	.	.
4A	12f	4cc	4ccc
.	12e	.	.
.	12f	.	.
=67	=67	=67	=67
4B-	12f	4dd	4ddd
.	12e	.	.
.	12f	.	.
4BB-	12c	[4e	[4gg
.	12B	.	.
.	12c	.	.
=68	=68	=68	=68
4B-	12c	4e]	4gg]
.	12B	.	.
.	12c	.	.
4A	12c	4f	4aa
.	12B	.	.
.	12c	.	.
=69	=69	=69	=69
4G	12d	4g	4bb-
.	12B-	.	.
.	12d	.	.
4GG	12G	12B-	[4dd
.	12F#	12A	.
.	12G	12B-	.
=70	=70	=70	=70
4BB-	12G	12B-	4dd]
.	12F#	12A	.
.	12G	12B-	.
4C	12G	12B-	4ee
.	12F#	12A	.
.	12G	12B-	.
=71	=71	=71	=71
4D	4F	4A	4ff
4BB-	[4f	12B-	4dd
.	.	12d	.
.	.	12b-	.
=72	=72	=72	=72
4C	4f]	12a	12cc
.	.	12b-	12dd
.	.	12a	12cc
4CC	4B-	12g	12b-
.	.	12f	12a
.	.	12e	12g
=73	=73	=73	=73
4FF	12A	4f	12f
.	12a	.	12cc
.	12a	.	12cc
4r	12a	4r	12cc
.	12g	.	12b-
.	12f	.	12a
=74	=74	=74	=74
4C	4e	12r	12g
.	.	12gg	12bb-
.	.	12gg	12bb-
4r	4r	12gg	12bb-
.	.	12ff	12aa
.	.	12ee	12gg
=75	=75	=75	=75
4F	12r	4ff	12ff
.	12a	.	12cc
.	12a	.	12cc
4r	12a	4r	12cc
.	12g	.	12b-
.	12f	.	12a
=76	=76	=76	=76
4C	4e	12r	12g
.	.	12gg	12bb-
.	.	12gg	12bb-
4r	4r	12gg	12bb-
.	.	12ff	12aa
.	.	12ee	12gg
=77	=77	=77	=77
12f	12f	12ff	12ff
12e	12e	12ee	12ee
12f	12f	12ff	12ff
12d	12d	12dd	12dd
12c#	12c#	12cc#	12cc#
12d	12d	12dd	12dd
=78	=78	=78	=78
12B-	12B-	12b-	12b-
12A	12A	12a	12a
12B-	12B-	12b-	12b-
12G	12G	12g	12g
12A	12A	12a	12a
12B-	12B-	12b-	12b-
=79	=79	=79	=79
4c	4c	4cc	4cc
4C	4b-	4ee 4cc 4g	4ee 4cc 4g
=80	=80	=80	=80
4FF	4a	4ff 4cc 4f	4ff 4cc 4f
8r	4r	8.r	8.r
16r	.	.	.
16r	.	16a	16cc
=81	=81	=81	=81
2r	2r	4cc	4ee-
.	.	4b-	4dd
=82	=82	=82	=82
4..r	4..r	4a	4cc
.	.	4g	4b-
16B-	16d	.	.
=83	=83	=83	=83
4c	4e-	4f#	4a
4B-	4d	4r	4r
=84	=84	=84	=84
4A	4c	4..r	4..r
4G	4B-	.	.
.	.	16g	16b-
=85	=85	=85	=85
4F#	4A	4a	4cc
4r	4r	4cc	4ee-
=86	=86	=86	=86
4..r	4..r	4b-	4dd
.	.	4a	4cc
16F#	16d	.	.
=87	=87	=87	=87
4G	4d	4g	4b-
4A	4c	4r	4r
=88	=88	=88	=88
4G	4B-	4..r	4..r
4F	4A	.	.
.	.	16d	16b-
=89	=89	=89	=89
4E	4G	4b-	4dd
4r	4r	4a	4cc
=90	=90	=90	=90
4..r	4..r	4g	4b-
.	.	4f	4a
16A	16c	.	.
=91	=91	=91	=91
4B-	4d-	4e	4g
4A	4c	4r	4r
=92	=92	=92	=92
4G	4B-	4..r	4..r
4F	4A	.	.
.	.	16f	16a
=93	=93	=93	=93
4E	4G	4g	4b-
4r	4r	4b-	4dd
=94	=94	=94	=94
4..r	4..r	4a	4cc
.	.	4g	4b-
16E	16c	.	.
=95	=95	=95	=95
4F	3cc	4f	4a
4FF	.	4r	4r
.	12a	.	.
.	12b-	.	.
=96	=96	=96	=96
2r	12cc	2r	4..r
.	12a	.	.
.	12f	.	.
.	12dd	.	.
.	12b-	.	.
.	12f	.	.
.	.	.	16ff
=97	=97	=97	=97
2r	8ee-	2r	3ccc
.	8cc	.	.
.	[4a	.	.
.	.	.	12aa
.	.	.	12bb-
=98	=98	=98	=98
2r	4a]	4..r	12ccc
.	.	.	12aa
.	.	.	12ff
.	4b-	.	12ddd
.	.	.	12bb-
.	.	.	12ff
.	.	16f	.
=99	=99	=99	=99
2r	12a	3cc	8eee-
.	12cc	.	.
.	.	.	8ccc
.	12a	.	.
.	[4f	.	[4aa
.	.	12a	.
.	.	12b-	.
=100	=100	=100	=100
4..r	4f]	12cc	4aa]
.	.	12a	.
.	.	12f	.
.	4f	12dd	4bb-
.	.	12b-	.
.	.	12f	.
16F	.	.	.
=101	=101	=101	=101
3c	4r	8ee-	12aa
.	.	.	12ccc
.	.	8cc	.
.	.	.	12aa
.	[4e-	[4a	[4ff
12A	.	.	.
12B-	.	.	.
=102	=102	=102	=102
12c	4e-]	4a]	4ff]
12A	.	.	.
12F	.	.	.
12d	4d	4b-	4ff
12B-	.	.	.
12F	.	.	.
=103	=103	=103	=103
8e-	8c	12a	4r
.	.	12cc	.
8c	8e-	.	.
.	.	12a	.
[4A	[4c	[4f	[4ee-
=104	=104	=104	=104
4A]	4c]	4f]	4ee-]
4B-	4B-	4f	4dd
=105	=105	=105	=105
4F	4A	4f	4cc
8r	8r	8r	8r
8F	8f	8f	8f
=106	=106	=106	=106
12B-	12b-	12b-	12b-
12F	12f	12f	12f
12E-	12e-	12e-	12e-
12D	12d	12d	12d
12C	12c	12c	12c
12BB-	12B-	12B-	12B-
=107	=107	=107	=107
12F	12f	4f	4f
12A	12a	.	.
12c	12cc	.	.
12e-	12ee-	8r	8r
12d	12dd	.	.
.	.	8ff	8ff
12c	12cc	.	.
=108	=108	=108	=108
12B-	12b-	12bb-	12bb-
12F	12f	12ff	12ff
12E-	12e-	12ee-	12ee-
12D	12d	12dd	12dd
12C	12c	12cc	12cc
12BB-	12B-	12b-	12b-
=109	=109	=109	=109
4F	4c	4a	4ff
4r	4r	4r	4r
=110	=110	=110	=110
4F	4c	4f 4A	4f 4A
4r	4r	4r	4r
=111	=111	=111	=111
4FF	4c	4f 4A	4f 4A
4r	4r	4r	4r
=112	=112	=112	=112
2r	2r	4..r	4..r
.	.	16dd	16ff
=113	=113	=113	=113
2r	2r	4ee-	4gg
.	.	4dd	4ff
=114	=114	=114	=114
4..r	4..r	4cc	4ee-
.	.	4b	4dd
16d	16f	.	.
=115	=115	=115	=115
4e-	4g	4cc	4cc
4d	4f	4r	4r
=116	=116	=116	=116
4c	4e-	4..r	4..r
4B-	4d	.	.
.	.	16g	16ee-
=117	=117	=117	=117
4A	4c	4f	4ff
4r	4r	4cc	4ee-
=118	=118	=118	=118
4..r	4..r	4b-	4dd
.	.	4a	4cc
16c	16e-	.	.
=119	=119	=119	=119
4d	4f	4b-	4b-
4c	4e-	4r	4r
=120	=120	=120	=120
4B-	4d	2r	2r
4A	4c	.	.
=121	=121	=121	=121
8B-	8B-	8d	2ff
8B-	8B-	8d	.
8B-	8B-	8d	.
8B-	8B-	8d	.
=122	=122	=122	=122
8B-	8B-	8f	4dd
8B-	8B-	8f	.
8B-	8d	8f	4b-
8B-	8d	8f	.
=123	=123	=123	=123
8BB-	8B-	8e-	[6..gg
8BB-	8B-	8e-	.
8BB-	8B-	8ee-	.
.	.	.	48gg]
.	.	.	16aa
8BB-	8B-	8ee-	16gg
.	.	.	16aa
=124	=124	=124	=124
8BB-	8B-	8dd	4bb-
8BB-	8B-	8dd	.
8D	8d	8f	8.r
8D	8d	8f	.
.	.	.	16b-
=125	=125	=125	=125
8E-	8e-	8g	4cc
8E-	8e-	8g	.
8F	8f	8a	4dd
8F	8f	8a	.
=126	=126	=126	=126
8G	8g	8b-	4.ee-
8G	8g	8b-	.
8A	8f	8cc	.
8A	8f	8cc	16dd
.	.	.	16ee-
=127	=127	=127	=127
8B-	4.f	8b-	4.dd
8BB-	.	4B-	.
8B-	.	.	.
8B-	8d	[8B-	8b-
=128	=128	=128	=128
8A	8e-	8B-]	8cc
8A-	8f	4B-	8dd
8G	8g	.	8ee-
8F	8d	[8B-	8ff
=129	=129	=129	=129
8E-	8e-	8B-]	2gg
8E-	8e-	8b-	.
8E-	8e-	8b-	.
8E-	8e-	8b-	.
=130	=130	=130	=130
8r	8r	8r	2aa
8F	8c	8e-	.
8F	8c	8e-	.
8F	8c	8e-	.
=131	=131	=131	=131
8r	8r	8r	2bb-
8G	8B-	8d	.
8G	8B-	8d	.
8G	8B-	8d	.
=132	=132	=132	=132
8r	8r	8r	2ccc
8A	8e-	8f	.
8A	8e-	8f	.
8A	8e-	8f	.
=133	=133	=133	=133
8r	8r	8r	2ddd
8B-	8d	8f	.
8B-	8B-	8f	.
8B-	8B-	8f	.
=134	=134	=134	=134
8r	8r	8r	2ee
8G	8c	8b-	.
8G	8c	8b-	.
8G	8c	8b-	.
=135	=135	=135	=135
4F	8c	8a	8ff
.	4c	8a	8ff
4c	.	8b-	8gg
.	8B-	8g	8ee
=136	=136	=136	=136
4F	8A	8f	8ff
.	4c	8a	8ff
4C	.	8b-	8gg
.	8B-	8g	8ee
=137	=137	=137	=137
4F	4A	4f	4ff
4F	4c	4f 4A	4f 4A
=138	=138	=138	=138
4FF	4c	4f 4A	4f 4A
4r	4r	4r	4r
=139	=139	=139	=139
2BB-	8r	4.f	4.ff
.	8F	.	.
.	8E	.	.
.	8F	8d	8dd
=140	=140	=140	=140
2D	8r	4B-	4b-
.	8F	.	.
.	8E	8.r	8.r
.	8F	.	.
.	.	16B-	16b-
=141	=141	=141	=141
2C	8r	4.e-	4.ee-
.	8F	.	.
.	8E	.	.
.	8F	8c	8cc
=142	=142	=142	=142
2E-	8r	4A	4a
.	8F	.	.
.	8E	8.r	8.r
.	8F	.	.
.	.	16A	16f
=143	=143	=143	=143
4D	8r	4B-	4b-
.	8F	.	.
4C	8r	4A	4cc
.	8F	.	.
=144	=144	=144	=144
4BB-	8r	4B-	4dd
.	8F	.	.
4AA	8r	4c	4ee-
.	8F	.	.
=145	=145	=145	=145
2BB-	8r	2B-	2dd
.	8F	.	.
.	8E	.	.
.	8F	.	.
=146	=146	=146	=146
2FF	8r	4A	4cc
.	8F	.	.
.	8E	4r	4r
.	8F	.	.
=147	=147	=147	=147
2BB-	8r	4.f	4.ff
.	8F	.	.
.	8E	.	.
.	8F	8d-	8dd-
=148	=148	=148	=148
2D-	8r	4B-	4b-
.	8F	.	.
.	8E	8.r	8.r
.	8F	.	.
.	.	16B-	16b-
=149	=149	=149	=149
2C	8r	4.e-	4.ee-
.	8F	.	.
.	8E	.	.
.	8F	8c	8cc
=150	=150	=150	=150
2E-	8r	4A	4a
.	8F	.	.
.	8E	8.r	8.r
.	8F	.	.
.	.	16A	16a
=151	=151	=151	=151
4D-	8r	4B-	4b-
.	8F	.	.
4BB-	8r	4d-	4g-
.	8B-	.	.
=152	=152	=152	=152
4AA-	8r	4c	4f
.	8A-	.	.
4GG-	8r	4B-	4e
.	8B-	.	.
=153	=153	=153	=153
4FF	4c	4A	4f
4r	4r	4r	4r
=154	=154	=154	=154
4r	12F	2r	4r
.	12G	.	.
.	12A	.	.
4D	12B-	.	4bb-
.	12c	.	.
.	12d	.	.
=155	=155	=155	=155
4C	12e-	4r	4aa
.	12c	.	.
.	12A	.	.
4E-	12F	4a	4r
.	12F	.	.
.	12F	.	.
=156	=156	=156	=156
4D	12F	4b-	4r
.	12G	.	.
.	12A	.	.
4BB-	12B-	4r	4bb-
.	12c	.	.
.	12d	.	.
=157	=157	=157	=157
4C	12e-	4r	4aa
.	12c	.	.
.	12A	.	.
4E-	12F	4a	4r
.	12F	.	.
.	12F	.	.
=158	=158	=158	=158
4D	4F	12b-	4r
.	.	12f	.
.	.	12d	.
4r	4r	12B-	4bb-
.	.	12d	.
.	.	12f	.
=159	=159	=159	=159
4E-	4G	12b-	4r
.	.	12g	.
.	.	12e-	.
4r	4r	12B-	4gg
.	.	12G	.
.	.	12e-	.
=160	=160	=160	=160
4F	4r	12d	12ff
.	.	12e-	12gg
.	.	12d	12ff
4FF	4E-	12c	12ee-
.	.	12B-	12dd
.	.	12A	12cc
=161	=161	=161	=161
[4BB-	4E-	4A	4cc
8BB-]	8D	8B-	8b-
8r	8r	8r	8r
=162	=162	=162	=162
4BB-	2r	4r	12ff
.	.	.	12gg
.	.	.	12aa
4D	.	4b-	12bb-
.	.	.	12ccc
.	.	.	12ddd
=163	=163	=163	=163
4C	4r	4a	12eee-
.	.	.	12ccc
.	.	.	12aa
4E-	4A	4r	12ff
.	.	.	12ff
.	.	.	12ff
=164	=164	=164	=164
4D	4B-	4r	12ff
.	.	.	12gg
.	.	.	12aa
4BB-	4r	4b-	12bb-
.	.	.	12ccc
.	.	.	12ddd
=165	=165	=165	=165
4C	4r	4a	12eee-
.	.	.	12ccc
.	.	.	12aa
4E-	4A	4r	12ff
.	.	.	12ff
.	.	.	12ff
=166	=166	=166	=166
4D	4B-	4r	12ff
.	.	.	12bb-
.	.	.	12aa
4D	4r	4f	12bb-
.	.	.	12ccc
.	.	.	12ddd
=167	=167	=167	=167
4E-	[2B-	12b-	12gg
.	.	12g	12bb-
.	.	12f	12aa
4E-	.	12g	12bb-
.	.	12f	12aa
.	.	12e-	12gg
=168	=168	=168	=168
4F	4B-]	12d	12ff
.	.	12e-	12gg
.	.	12d	12ff
4FF	4E-	12c	12ee-
.	.	12B-	12dd
.	.	12A	12cc
=169	=169	=169	=169
4BB-	4D	12B-	4b-
.	.	12B-	.
.	.	12B-	.
4BB-	4d	12B-	4dd
.	.	12A	.
.	.	12B-	.
=170	=170	=170	=170
4C	4e-	12B-	4ee-
.	.	12A	.
.	.	12B-	.
4D	4f	12B-	4ff
.	.	12A	.
.	.	12B-	.
=171	=171	=171	=171
4E-	4g	12B-	4gg
.	.	12A	.
.	.	12B-	.
4EE-	[4A	12f	[4cc
.	.	12e	.
.	.	12f	.
=172	=172	=172	=172
4E-	4A]	12f	4cc]
.	.	12e	.
.	.	12f	.
4D	4B-	12f	4dd
.	.	12e	.
.	.	12f	.
=173	=173	=173	=173
4C	4c	12e-	4ee-
.	.	12g	.
.	.	12e-	.
4CC	12c	12e-	[4g
.	12B	12d	.
.	12c	12e-	.
=174	=174	=174	=174
4EE-	12c	12e-	4g]
.	12B	12d	.
.	12c	12e-	.
4FF	12c	12e-	8.a
.	12B	12d	.
.	12c	12e-	.
.	.	.	32g
.	.	.	32a
=175	=175	=175	=175
4GG	4B-	4d	4b-
4E-	[4B-	4e-	4gg
=176	=176	=176	=176
4F	4B-]	12d	12ff
.	.	12e-	12gg
.	.	12d	12ff
4FF	4E-	12c	12ee-
.	.	12B-	12dd
.	.	12A	12cc
=177	=177	=177	=177
4BB-	4D	12B-	4b-
.	.	12B-	.
.	.	12B-	.
4BB-	4d	12B-	4dd
.	.	12A	.
.	.	12B-	.
=178	=178	=178	=178
4C	4e-	12B-	4ee-
.	.	12A	.
.	.	12B-	.
4D	4f	12B-	4ff
.	.	12A	.
.	.	12B-	.
=179	=179	=179	=179
4E-	4g	12B-	4gg
.	.	12A	.
.	.	12B-	.
4EE-	[4A	12f	[4cc
.	.	12e	.
.	.	12f	.
=180	=180	=180	=180
4E-	4A]	12f	4cc]
.	.	12e	.
.	.	12f	.
4D	4B-	12f	4dd
.	.	12e	.
.	.	12f	.
=181	=181	=181	=181
4C	4c	12e-	4ee-
.	.	12g	.
.	.	12e-	.
4CC	12c	12e-	[4g
.	12B	12d	.
.	12c	12e-	.
=182	=182	=182	=182
4EE-	12c	12e-	4g]
.	12B	12d	.
.	12c	12e-	.
4FF	12c	12e-	8.a
.	12B	12d	.
.	12c	12e-	.
.	.	.	32g
.	.	.	32a
=183	=183	=183	=183
4GG	4B-	4d	4b-
4E-	[4B-	4e-	4gg
=184	=184	=184	=184
4F	4B-]	12d	12ff
.	.	12e-	12gg
.	.	12d	12ff
4FF	4E-	12c	12ee-
.	.	12B-	12dd
.	.	12A	12cc
=185	=185	=185	=185
4BB-	4D	12B-	12b-
.	.	12d	12f
.	.	12d	12f
4r	4r	12d	12f
.	.	12c	12e-
.	.	12B-	12d
=186	=186	=186	=186
4F	12r	4A	12c
.	12cc	.	12ee-
.	12cc	.	12ee-
4r	12cc	4r	12ee-
.	12b-	.	12dd
.	12a	.	12cc
=187	=187	=187	=187
4B-	12b-	4b- 4d 4B-	12b-
.	12dd	.	12ff
.	12dd	.	12ff
4r	12dd	4r	12ff
.	12cc	.	12ee-
.	12b-	.	12dd
=188	=188	=188	=188
4F	4a	12r	12cc
.	.	12ccc	12eee-
.	.	12ccc	12eee-
4r	4r	12ccc	12eee-
.	.	12bb-	12ddd
.	.	12aa	12ccc
=189	=189	=189	=189
12B-	12b-	12bb-	12bb-
12A	12a	12aa	12aa
12B-	12b-	12bb-	12bb-
12G	12g	12gg	12gg
12F#	12f#	12ff#	12ff#
12G	12g	12gg	12gg
=190	=190	=190	=190
12E-	12e-	12ee-	12ee-
12D	12d	12dd	12dd
12E-	12e-	12ee-	12ee-
12C	12c	12cc	12cc
12D	12d	12dd	12dd
12E-	12e-	12ee-	12ee-
=191	=191	=191	=191
4F	4f	4ff	4ff
4FF	4e-	4aa 4cc 4f	4aa 4cc 4f
=192	=192	=192	=192
4BB-	4d	4bb- 4b- 4d	4bb- 4dd 4f
4r	4r	8.r	8.r
.	.	16dd	16ff
=193	=193	=193	=193
2r	2r	4ee-	4gg
.	.	4dd	4ff
=194	=194	=194	=194
4..r	4..r	4cc	4ee-
.	.	4b	4dd
16d	16f	.	.
=195	=195	=195	=195
4e-	4g	4cc	4cc
4d	4f	4r	4r
=196	=196	=196	=196
4c	4e-	4..r	4..r
4B-	4d	.	.
.	.	16g	16ee-
=197	=197	=197	=197
4A	4c	4f	4ff
4r	4r	4cc	4ee-
=198	=198	=198	=198
4..r	4..r	4b-	4dd
.	.	4a	4cc
16F	16e-	.	.
=199	=199	=199	=199
4B-	4d	4b-	4b-
4B-	4b- 4f 4B-	4dd 4f 4B-	4bb- 4b- 4d
=200	=200	=200	=200
4BB-	4b- 4f 4B-	4dd 4f 4B-	4bb- 4b- 4d
4r	4r	4r	4r
==	==	==	==
*-	*-	*-	*-
!!!RWG1: This file contains only pitch and duration data.
!!!RWG2: Transposing instruments are not transposed.
!!!RWG3: Spines may have incompatible meters.
!!!RWG4: Durations of rests and tied notes may be interpreted.
!!!RWG: Key is interpreted using the Humdrum key tool.
!!!AFT: stage1
!!!END: 1997/04/15
!!!KEY: 96981990
!!!EMD: Converted from MuseData to Humdrum Dec 16, 2000, by Andreas Kornstaedt using muse2kern.
!!!EMD: Manual editing by Craig Sapp, Nov 2001
